img/VK.svg

<svg width="16" height="10" viewBox="0 0 16 10" fill="none" xmlns="http://www.w3.org/2000/svg">
<path d="M15.9151 9.02702C15.8955 8.98052 15.8775 8.94297 15.8612 8.91257C15.5836 8.36534 15.0529 7.69293 14.2692 6.89534L14.2529 6.87746L14.2447 6.86852L14.2365 6.85958H14.2284C13.8724 6.4876 13.6471 6.23903 13.554 6.11206C13.3809 5.86885 13.3434 5.62206 13.4365 5.37348C13.5034 5.18571 13.7532 4.78691 14.1859 4.17888C14.4145 3.85699 14.5941 3.59768 14.728 3.40275C15.6897 2.00429 16.1061 1.11013 15.9771 0.720274L15.9281 0.629069C15.8955 0.573632 15.8089 0.523558 15.6701 0.47885C15.5314 0.432354 15.3534 0.425201 15.1362 0.455603L12.7376 0.473486C12.6984 0.459179 12.6429 0.459179 12.5711 0.47885C12.4992 0.496734 12.4633 0.505675 12.4633 0.505675L12.4208 0.528924L12.3882 0.555748C12.3604 0.573631 12.3294 0.605821 12.2967 0.652318C12.2641 0.697026 12.2363 0.750675 12.2135 0.811478C11.9522 1.54827 11.6551 2.2314 11.322 2.86447C11.1162 3.2418 10.9284 3.56907 10.7554 3.84626C10.5839 4.12345 10.4386 4.32731 10.3227 4.45786C10.2067 4.58841 10.1006 4.69392 10.0059 4.77261C9.9112 4.85129 9.83936 4.88527 9.78874 4.87275C9.73812 4.86023 9.69077 4.84772 9.64669 4.83699C9.56831 4.78155 9.50626 4.70823 9.45891 4.61345C9.41156 4.51866 9.3789 4.40064 9.36258 4.25757C9.34625 4.1145 9.33645 3.99111 9.33319 3.88739C9.32992 3.78367 9.33155 3.63702 9.33808 3.44925C9.34461 3.26148 9.34625 3.13272 9.34625 3.06655C9.34625 2.83586 9.35115 2.5837 9.35931 2.31367C9.36747 2.04363 9.37401 1.82903 9.38054 1.66987C9.38544 1.5125 9.3887 1.3444 9.3887 1.16735C9.3887 0.99031 9.3789 0.85261 9.35931 0.752464C9.33972 0.652318 9.31033 0.55396 9.27277 0.460967C9.23358 0.366186 9.17643 0.292865 9.10133 0.242792C9.02622 0.190931 8.93315 0.1498 8.82211 0.119398C8.52821 0.0460773 8.15266 0.00673414 7.6971 0.00136918C6.66353 -0.0111491 6.0006 0.0621721 5.7067 0.221333C5.59077 0.2875 5.48463 0.378705 5.38993 0.494946C5.29033 0.62907 5.27563 0.70239 5.34748 0.71312C5.68057 0.768558 5.91733 0.899106 6.05612 1.10476L6.10674 1.21385C6.14593 1.29254 6.18511 1.43381 6.22267 1.63411C6.26186 1.8344 6.28635 2.05615 6.29778 2.29936C6.32553 2.74286 6.32553 3.12378 6.29778 3.44031C6.27002 3.75684 6.24389 4.00363 6.2194 4.17888C6.19491 4.35593 6.15735 4.49899 6.10674 4.60808C6.05612 4.71717 6.02346 4.78512 6.00714 4.80837C5.99081 4.83341 5.97611 4.84772 5.96631 4.85308C5.89447 4.88348 5.81936 4.89958 5.74099 4.89958C5.66261 4.89958 5.56954 4.85666 5.45851 4.77261C5.34748 4.68677 5.23155 4.57053 5.11235 4.4221C4.99316 4.27366 4.85763 4.06443 4.70741 3.79618C4.55719 3.52794 4.40208 3.2114 4.24043 2.84659L4.10654 2.58191C4.02326 2.41202 3.90896 2.16345 3.76528 1.83797C3.62159 1.5125 3.4926 1.19776 3.38156 0.893741C3.33748 0.76677 3.27053 0.668413 3.18236 0.602245L3.13991 0.57542C3.11215 0.550383 3.06806 0.525347 3.00602 0.498522C2.9456 0.471697 2.88029 0.452026 2.81498 0.439508L0.532298 0.457391C0.298806 0.457391 0.140422 0.514617 0.0571486 0.630858L0.0244923 0.686296C0.00816409 0.716697 0 0.764982 0 0.832938C0 0.899106 0.0163282 0.981368 0.0506173 1.07973C0.383712 1.93812 0.746198 2.76432 1.13807 3.56191C1.52995 4.3595 1.86958 5.00151 2.15858 5.48793C2.44759 5.97436 2.7415 6.43395 3.04194 6.86494C3.34238 7.29771 3.53995 7.57311 3.63792 7.69472C3.73589 7.81633 3.811 7.90753 3.86651 7.96833L4.07551 8.18651C4.2094 8.33315 4.40534 8.50662 4.66333 8.71049C4.92131 8.91435 5.20705 9.11465 5.52219 9.31315C5.83569 9.50987 6.20144 9.6726 6.61781 9.796C7.03418 9.92118 7.43912 9.97125 7.83426 9.94621H8.79272C8.98703 9.92833 9.13398 9.86038 9.23358 9.74592L9.26624 9.69943C9.2891 9.66366 9.30869 9.60643 9.32829 9.53132C9.34788 9.45443 9.35768 9.37216 9.35768 9.28096C9.35278 9.01987 9.37074 8.78381 9.41156 8.57457C9.45238 8.36534 9.49973 8.20618 9.55362 8.10067C9.60587 7.99337 9.66628 7.90395 9.73323 7.83242C9.80017 7.7591 9.84752 7.71439 9.87528 7.70009C9.90304 7.68399 9.92426 7.67505 9.94223 7.6679C10.0761 7.61961 10.2329 7.66611 10.4125 7.80917C10.5937 7.95224 10.7619 8.12928 10.9203 8.33852C11.0787 8.54775 11.2681 8.78381 11.4901 9.0449C11.7122 9.306 11.9065 9.50092 12.0731 9.62968L12.2396 9.73877C12.3506 9.81209 12.496 9.87826 12.6723 9.93906C12.8503 9.99987 13.0054 10.016 13.1393 9.98377L15.2717 9.948C15.4824 9.948 15.6473 9.91045 15.7632 9.83355C15.8792 9.75665 15.9494 9.67439 15.9722 9.58319C15.9951 9.49198 15.9951 9.38826 15.9771 9.27202C15.9543 9.15399 15.9347 9.07173 15.9151 9.02702Z" fill="white"/>
</svg>

<svg width="16" height="10" viewBox="0 0 16 10" fill="none" xmlns="http://www.w3.org/2000/svg"><path d="M15.915 9.027a1.365 1.365 0 0 0-.054-.114c-.277-.548-.808-1.22-1.592-2.018l-.016-.018-.008-.008-.008-.01h-.009c-.356-.371-.58-.62-.674-.747-.173-.243-.21-.49-.117-.739.066-.187.316-.586.749-1.194.229-.322.408-.581.542-.776.962-1.399 1.378-2.293 1.25-2.683l-.05-.09c-.033-.056-.12-.106-.258-.151-.139-.047-.317-.054-.534-.023l-2.398.017a.281.281 0 0 0-.167.006l-.108.027-.042.023-.033.027a.362.362 0 0 0-.091.096.668.668 0 0 0-.084.16c-.26.736-.558 1.42-.891 2.052a19.7 19.7 0 0 1-.567.982 4.658 4.658 0 0 1-.432.612c-.116.13-.222.236-.317.315-.095.078-.167.112-.217.1l-.142-.036a.588.588 0 0 1-.188-.224 1.066 1.066 0 0 1-.096-.355 4.607 4.607 0 0 1-.03-.37 7.074 7.074 0 0 1 .005-.439c.007-.188.008-.316.008-.382 0-.231.005-.483.013-.753s.015-.485.022-.644c.004-.157.008-.326.008-.503s-.01-.314-.03-.415c-.02-.1-.049-.198-.086-.291A.47.47 0 0 0 9.1.243a.913.913 0 0 0-.279-.124C8.528.046 8.152.007 7.697.001c-1.033-.012-1.696.061-1.99.22a1.137 1.137 0 0 0-.317.274c-.1.134-.114.207-.043.218.334.056.57.186.71.392l.05.109c.039.079.078.22.116.42.039.2.063.422.075.665.028.444.028.825 0 1.141-.028.317-.054.564-.079.739-.024.177-.062.32-.112.43a2.01 2.01 0 0 1-.1.2.138.138 0 0 1-.04.044.573.573 0 0 1-.226.047c-.078 0-.171-.043-.282-.127a2.114 2.114 0 0 1-.347-.35 4.688 4.688 0 0 1-.405-.627c-.15-.268-.305-.585-.467-.95l-.133-.264A21.87 21.87 0 0 1 3.382.894a.6.6 0 0 0-.2-.292L3.14.575A.504.504 0 0 0 3.006.5a.885.885 0 0 0-.191-.06L.532.458C.3.457.14.515.057.631L.024.686A.325.325 0 0 0 0 .833c0 .066.016.148.05.247.334.858.696 1.684 1.088 2.482.392.797.732 1.44 1.02 1.926.29.486.583.946.884 1.377.3.433.498.708.596.83.098.121.173.213.229.273l.209.219c.133.146.33.32.587.523.258.204.544.405.86.603.313.197.678.36 1.095.483.416.125.821.175 1.216.15h.959c.194-.018.341-.086.44-.2l.033-.047a.63.63 0 0 0 .062-.168c.02-.077.03-.159.03-.25a3.378 3.378 0 0 1 .054-.706c.04-.21.088-.369.142-.474.052-.108.112-.197.18-.269a.712.712 0 0 1 .141-.132.474.474 0 0 1 .067-.032c.134-.048.29-.002.47.141.182.143.35.32.508.53.159.209.348.445.57.706.222.261.416.456.583.585l.167.109c.11.073.256.14.432.2a.84.84 0 0 0 .467.045l2.133-.036c.21 0 .375-.038.491-.114.116-.077.186-.16.21-.25a.787.787 0 0 0 .004-.312 1.368 1.368 0 0 0-.062-.245Z" fill="#fff"/></svg>
